X:332
T:Loosin Yelav
T:The Moon Rose
Z:Jack Campin, http://www.campin.me.uk/
F:Jack Campin's Nine-Note Tunebook
% last edit 03-02-2013
C:ABAC 
S:Luciano Berio, 7 Folk Songs, III
M:2/4
L:1/8
Q:1/4=58
P:ABAC
N:original in G minor
K:DMin
P:A
D2 (DE) |F2 F2|G2 (GE)|(F2 D2)|\
E2 (EF) |G2 D2|G2  F2 | G4    |
A2 (Ac) |A2 A2|G2 (GA)|(F2 D2)|D2 (DE)|F2  G2 |E2 (FD)|D3z |
A2 (AHc)|A2 A2|G2 (GA)|(F2 E2)|D2 (DE)|F2 (GE)|E2 (FD)|D3z||
P:B
DGGG|GAFE|DEFG|EFGHc|AGGG|GAFE|EFDHD||
P:C
DGGG|GAFE|GAFE|DEFG|EFDHD|]

